X:1
T:Title
%%score { ( 1 4 ) | ( 2 3 ) }
L:1/8
M:3/4
K:Bb
V:1 treble nm="Grand Piano"
V:4 treble 
V:2 bass 
V:3 bass 
V:1
 z2 z2[Q:1/4=116] [DF]2 | [DF]2 [EG]2 [DF]2 | [B,D]2 [CE]2 [DF]2 | G4 B2 | B4 G2 | F4 B2 | %6
 d2 c2 [=EB]2 |[M:2/4] c4 |[M:1/4] c2 |[M:3/4] d2 e2 d2 | d2 c2 [FB]2 | c2 B2 G2 | B4 G2 | F4 B2 | %14
 B2 A2 [Ec]2 |[M:2/4] [DB]4 |] %16
V:2
 z2 z2 [B,,B,]2 | [B,,B,]4 [B,,B,]2 | [B,,F,]4 [B,,B,]2 | [E,B,E]4 [E,G,E]2 | [E,G,E]4 [E,B,E]2 | %5
 [B,D]4 [B,D]2 | [G,B,=E]4 [C,C]2 |[M:2/4][K:treble] [F,A,F]4 |[M:1/4] [F,A,F]2 |[M:3/4] F2 z2 z2 | %10
 [B,,B,]2 [C,A,]2 [D,B,]2 | [E,B,]4 [E,B,E]2 | [E,G,E]4 [E,B,E]2 | [F,B,D]4 [F,DF]2 | %14
 [F,CE]4 [F,,A,]2 |[M:2/4] [B,,F,]4 |] %16
V:3
 x6 | x6 | x6 | x6 | x6 | x6 | x6 |[M:2/4][K:treble] x4 |[M:1/4] x2 |[M:3/4] B,2- [B,G]2 [B,F]2 | %10
 x6 | x6 | x6 | x6 | x6 |[M:2/4] x4 |] %16
V:4
 x6 | x6 | x6 | x6 | x6 | x6 | x6 |[M:2/4] x4 |[M:1/4] x2 |[M:3/4] x6 | F4 z2 | G4 z2 | x6 | x6 | %14
 x6 |[M:2/4] x4 |] %16

